X: 1
T: Hanley's Tweed
R: reel
M: 4/4
L: 1/8
K: Ador
      |: ~A2eA fAeA  | ~B2AB     GFGB  | AE~E2 ABcd  |  edef  ~g2fg     |
         eaag  edef  | ~g2fa     gedg  | edBA  BG~G2 |1 BedB  AGEG     :|2 BedB A2  ||
(3Bcd |: eaaf  ~g2fg | (3efg dg  edBd  | eaaf  gfge  |  dG~G2 dGBd      |
         ea~a2 bg~g2 | agab      ~g2ag | edBA  BG~G2 |1 BedB  A2 (3Bcd :|2 BedB AGEG||